X:094
T:Miss Murray of Archentyre’s Reel TS.094
T:Miss Murray of Auchtertyre’s Strathespey,aka TS.094
M:C|
L:1/8
Q:1/2=80
S:Thomas Sands’ MS,1810,Lincolnshire
R:reel
O:England;Lincolnshire
C:John Bowie
Z:vmp.Ruairidh Greig, 2011
K:F
B|(A/B/c) fc dcfc|(A/B/c) fc dcdf|(A/B/c) fd cf/g/ ag|fdcAF3:|
|:(A/B/)|cFAF cF Bd|cF (d/c/B/A/)G3A/B/|cFAF faga|fdcA”dot added”F3:|]

